X: 26663
T: Midnight Hour, The
R: jig
M: 6/8
K: Gmajor
|:GDG BGB|dBd g3|d2 e dcA|ABG FED|
GDG BGB|dBd g3|d2 e dcB|AGF G3:|
|:gfg efg|abg fed|efg dcB|ABG FED|
gfg efg|abg fed|cea Bdg|AGF G3:|

